!!!SOCIAL_FUNCTION:	bird dance songs
!!!PDT:	1956
!!!OTL: No_172_Steal_Partner_Dance_Song_(a).krn
!!!LANG: Non-Tone
!!!LING_GROUP: Muskogean
!!!REG: Florida
**kern
*staff1
=1-
*clefF4
*k[f#]
*M3/8
4r
8G\
=2
8d\L
16.d\L
32B\JK
8B\J
=3
4.B\
=4||
*M2/4
8B\L
8B\J
8d\L
8B\J
=5
16.B\LL
32B\K
(16B\
16A\JJ)
4G\
=6
8G\L
8G\J
16A\LL
16G\J
8B\J
=7
16.B\LL
32B\JK
8B\J
8.G\L
16D\Jk
=8
32G\LLL
32G\J
16G\JJ
8r
8.D\L
16D\Jk
=9
4G\
4G\
=10
16G\LL
16G\J
8G\J
16A\LL
16G\J
8B\J
=11
16.B\LL
32B\K
(16B\
16A\JJ)
8G\
8r
=12
16G\LL
16G\J
8G\J
8G\L
8d\J
=13
16.d\LL
32B\JK
8B\J
4B\
=14
16B\LL
16B\J
8B\J
8d\L
8B\J
=15||
*M3/4
16.B\LL
32B\JK
8A\J
4G\
4r
=16||
*M2/4
16G\LL
16G\J
8G\J
16A\LL
16G\J
8B\J
=17
16.B\LL
32B\JK
8A\J
(8.G\L
16D\Jk)
=18
16G\LL
16G\J
8G\J
8r
16.D\LL
32D\JJk
=19
4G\
8G\
8r
=20
16G\LL
16G\J
8G\J
16A\LL
16G\J
8B\J
=21||
*M3/4
16.B\LL
32B\K
16B\
16A\JJ
4G\
8G\L
16.G\L
32G\JJk
==
*-
